X:1093
T:Jenny Dang the Weaver
R:reel
C:Alexander Garden (1688-1778), Birse, Aberdeenshire, Scotland
H:See also #292, #1088
O:Scottish
Z:id:hn-reel-1093
M:C|
L:1/8
K:D
dA~A2 AFAB | dA~A2 f2ef | dB~B2 BABd |1 ABde faef :|2 ABde f2ef ||
|: d2fd efge | defd e2dB | d2fd efge |1 aA~A2 f2ef :|2 abag faef || 

